X:320
T: Rover [The]
T: Fiaire Fe\'a [An]
S: B.Breathnach:"Ceol Rince na hEireann" IV/177
Z: B.Black
L: 1/8
M: 4/4
R: reel
K: Gdor
DGGA (3Bcd cB|AFcF dFcF|DGGA Bdfd|cAfA AG G2 :|
Gggf (3gab ag|fcgc acgc|dggf (3gab ag|fdcA AG G2|
Gggf (3gab ag|fcgc acgc|bgaf (3gab ag|fdcA AG G2 ||
